src/assets/img/tech/jest.svg

<svg xmlns="http://www.w3.org/2000/svg" width="256" height="283"><path fill="#C63D14" d="M196.671 158.039c0-8.913-7.226-16.139-16.141-16.139-.573 0-1.139.031-1.695.089l22.167-65.379H106.8l22.136 65.323c-.324-.02-.651-.033-.98-.033-8.913 0-16.139 7.226-16.139 16.139 0 7.204 4.721 13.304 11.239 15.38-3.442 5.962-7.773 11.332-12.691 15.971-6.687 6.309-14.338 11.092-22.615 14.039-9.854-5.062-14.507-16.32-10.308-26.191.474-1.115.958-2.243 1.421-3.368 7.138-1.667 12.458-8.067 12.458-15.714 0-8.914-7.226-16.14-16.139-16.14-8.914 0-16.139 7.227-16.139 16.14 0 5.467 2.72 10.292 6.876 13.214-3.995 9.094-9.866 18.613-11.696 29.645-2.192 13.222-.007 27.257 11.428 35.183 26.631 18.456 55.539-11.443 86.019-18.959 11.047-2.723 23.171-2.285 32.903-7.921 7.309-4.232 12.126-11.247 13.494-19.124 1.351-7.779-.619-15.526-5.148-21.808a16.089 16.089 0 0 0 3.752-10.347zm-52.578.056l.002-.057c0-5.853-3.116-10.979-7.779-13.808l17.618-35.626 17.649 36.003c-4.335 2.895-7.19 7.828-7.19 13.431 0 .117.007.233.01.351l-20.31-.294z"/><path fill="#FFF" d="M200.611 158.039c0-9.804-7.063-17.983-16.367-19.73L206.5 72.668H101.301l22.289 65.773c-8.98 1.999-15.716 10.024-15.716 19.598 0 7.189 3.799 13.503 9.493 17.052a67.253 67.253 0 0 1-9.709 11.432c-5.902 5.569-12.479 9.792-19.568 12.57-7.141-4.485-10.159-12.944-7.024-20.313l.246-.576.461-1.083c7.842-2.736 13.487-10.202 13.487-18.966 0-11.072-9.009-20.081-20.082-20.081-11.072 0-20.081 9.008-20.081 20.081 0 5.589 2.296 10.65 5.993 14.294a331.92 331.92 0 0 1-2.099 4.37c-3.381 6.943-7.211 14.813-8.662 23.551-2.877 17.354 1.765 31.229 13.071 39.065 6.86 4.754 13.829 6.626 20.84 6.625 13.204 0 26.559-6.634 39.622-13.121 9.409-4.674 19.137-9.506 28.746-11.875 3.576-.882 7.254-1.413 11.15-1.974 7.723-1.115 15.711-2.266 22.786-6.363 8.2-4.751 13.814-12.719 15.401-21.859 1.361-7.85-.277-15.709-4.278-22.375a19.961 19.961 0 0 0 2.944-10.454zm-7.883 0c0 6.726-5.471 12.198-12.198 12.198-6.724 0-12.196-5.473-12.196-12.198s5.473-12.197 12.196-12.197c6.728 0 12.198 5.471 12.198 12.197zm2.775-77.489l-19.652 57.964c-.852.204-1.684.461-2.489.771l-19.414-39.604-19.47 39.37a20.03 20.03 0 0 0-2.596-.706L112.296 80.55h83.207zm-67.548 65.292c6.726 0 12.196 5.471 12.196 12.197 0 6.726-5.471 12.198-12.196 12.198s-12.198-5.473-12.198-12.198c0-6.726 5.472-12.197 12.198-12.197zm-52.776.115c6.727 0 12.199 5.471 12.199 12.197 0 6.726-5.472 12.198-12.199 12.198-6.725 0-12.198-5.473-12.198-12.198 0-6.726 5.473-12.197 12.198-12.197zm119.002 43.561c-1.188 6.837-5.41 12.81-11.586 16.386-5.755 3.336-12.654 4.331-19.959 5.384-3.913.564-7.959 1.148-11.912 2.123-10.452 2.578-20.575 7.605-30.365 12.468-19.592 9.73-36.512 18.134-52.465 7.078-11.686-8.1-11.146-23.085-9.785-31.296 1.262-7.609 4.673-14.615 7.972-21.391a472.286 472.286 0 0 0 1.669-3.463 19.912 19.912 0 0 0 5.19 1.303c-3.358 11.083 1.923 23.133 13.007 28.827l1.517.779 1.606-.572c8.763-3.119 16.837-8.128 23.999-14.885a74.807 74.807 0 0 0 11.879-14.363c.982.148 1.985.226 3.007.226 11.073 0 20.081-9.009 20.081-20.081 0-5.956-2.608-11.311-6.739-14.991l12.621-25.52 12.747 26.006c-3.825 3.658-6.215 8.807-6.215 14.505 0 11.072 9.007 20.081 20.08 20.081 4.254 0 8.201-1.333 11.452-3.6 2.257 4.619 3.098 9.818 2.199 14.996z"/></svg>

<?xml version="1.0" encoding="UTF-8" standalone="no"?>
<!DOCTYPE svg PUBLIC "-//W3C//DTD SVG 1.1//EN" "http://www.w3.org/Graphics/SVG/1.1/DTD/svg11.dtd">
<svg width="100%" height="100%" viewBox="0 0 256 256" version="1.1" xmlns="http://www.w3.org/2000/svg" xmlns:xlink="http://www.w3.org/1999/xlink" xml:space="preserve" xmlns:serif="http://www.serif.com/" style="fill-rule:evenodd;clip-rule:evenodd;stroke-linejoin:round;stroke-miterlimit:2;">
    <g transform="matrix(1.07848,0,0,1.07848,-10.044,-43.8709)">
        <g>
            <path d="M196.671,158.039C196.671,149.126 189.445,141.9 180.53,141.9C179.957,141.9 179.391,141.931 178.835,141.989L201.002,76.61L106.8,76.61L128.936,141.933C128.612,141.913 128.285,141.9 127.956,141.9C119.043,141.9 111.817,149.126 111.817,158.039C111.817,165.243 116.538,171.343 123.056,173.419C119.614,179.381 115.283,184.751 110.365,189.39C103.678,195.699 96.027,200.482 87.75,203.429C77.896,198.367 73.243,187.109 77.442,177.238C77.916,176.123 78.4,174.995 78.863,173.87C86.001,172.203 91.321,165.803 91.321,158.156C91.321,149.242 84.095,142.016 75.182,142.016C66.268,142.016 59.043,149.243 59.043,158.156C59.043,163.623 61.763,168.448 65.919,171.37C61.924,180.464 56.053,189.983 54.223,201.015C52.031,214.237 54.216,228.272 65.651,236.198C92.282,254.654 121.19,224.755 151.67,217.239C162.717,214.516 174.841,214.954 184.573,209.318C191.882,205.086 196.699,198.071 198.067,190.194C199.418,182.415 197.448,174.668 192.919,168.386C195.347,165.486 196.676,161.821 196.671,158.039ZM144.093,158.095L144.095,158.038C144.095,152.185 140.979,147.059 136.316,144.23L153.934,108.604L171.583,144.607C167.248,147.502 164.393,152.435 164.393,158.038C164.393,158.155 164.4,158.271 164.403,158.389L144.093,158.095Z" style="fill:rgb(198,61,20);fill-rule:nonzero;"/>
            <path d="M200.611,158.039C200.611,148.235 193.548,140.056 184.244,138.309L206.5,72.668L101.301,72.668L123.59,138.441C114.61,140.44 107.874,148.465 107.874,158.039C107.874,165.228 111.673,171.542 117.367,175.091C114.567,179.252 111.31,183.086 107.658,186.523C101.756,192.092 95.179,196.315 88.09,199.093C80.949,194.608 77.931,186.149 81.066,178.78L81.312,178.204L81.773,177.121C89.615,174.385 95.26,166.919 95.26,158.155C95.26,147.083 86.251,138.074 75.178,138.074C64.106,138.074 55.097,147.082 55.097,158.155C55.097,163.744 57.393,168.805 61.09,172.449C60.401,173.911 59.701,175.367 58.991,176.819C55.61,183.762 51.78,191.632 50.329,200.37C47.452,217.724 52.094,231.599 63.4,239.435C70.26,244.189 77.229,246.061 84.24,246.06C97.444,246.06 110.799,239.426 123.862,232.939C133.271,228.265 142.999,223.433 152.608,221.064C156.184,220.182 159.862,219.651 163.758,219.09C171.481,217.975 179.469,216.824 186.544,212.727C194.744,207.976 200.358,200.008 201.945,190.868C203.306,183.018 201.668,175.159 197.667,168.493C199.596,165.348 200.615,161.728 200.611,158.039ZM192.728,158.039C192.728,164.765 187.257,170.237 180.53,170.237C173.806,170.237 168.334,164.764 168.334,158.039C168.334,151.314 173.807,145.842 180.53,145.842C187.258,145.842 192.728,151.313 192.728,158.039ZM195.503,80.55L175.851,138.514C174.999,138.718 174.167,138.975 173.362,139.285L153.948,99.681L134.478,139.051C133.629,138.758 132.762,138.522 131.882,138.345L112.296,80.55L195.503,80.55ZM127.955,145.842C134.681,145.842 140.151,151.313 140.151,158.039C140.151,164.765 134.68,170.237 127.955,170.237C121.23,170.237 115.757,164.764 115.757,158.039C115.757,151.313 121.229,145.842 127.955,145.842ZM75.179,145.957C81.906,145.957 87.378,151.428 87.378,158.154C87.378,164.88 81.906,170.352 75.179,170.352C68.454,170.352 62.981,164.879 62.981,158.154C62.981,151.428 68.454,145.957 75.179,145.957ZM194.181,189.518C192.993,196.355 188.771,202.328 182.595,205.904C176.84,209.24 169.941,210.235 162.636,211.288C158.723,211.852 154.677,212.436 150.724,213.411C140.272,215.989 130.149,221.016 120.359,225.879C100.767,235.609 83.847,244.013 67.894,232.957C56.208,224.857 56.748,209.872 58.109,201.661C59.371,194.052 62.782,187.046 66.081,180.27C66.642,179.118 67.198,177.964 67.75,176.807C69.413,177.473 71.159,177.911 72.94,178.11C69.582,189.193 74.863,201.243 85.947,206.937L87.464,207.716L89.07,207.144C97.833,204.025 105.907,199.016 113.069,192.259C117.612,187.985 121.603,183.16 124.948,177.896C125.93,178.044 126.933,178.122 127.955,178.122C139.028,178.122 148.036,169.113 148.036,158.041C148.036,152.085 145.428,146.73 141.297,143.05L153.918,117.53L166.665,143.536C162.84,147.194 160.45,152.343 160.45,158.041C160.45,169.113 169.457,178.122 180.53,178.122C184.784,178.122 188.731,176.789 191.982,174.522C194.239,179.141 195.08,184.34 194.181,189.518Z" style="fill:white;fill-rule:nonzero;"/>
        </g>
    </g>
</svg>
